svgs/solid/snowplow.svg

<svg xmlns="http://www.w3.org/2000/svg" viewBox="0 0 640 512"><!-- Font Awesome Pro 6.0.0-alpha2 by @fontawesome - https://fontawesome.com License - https://fontawesome.com/license (Commercial License) --><path d="M200.02 376C186.768 376 176.017 386.75 176.017 400S186.768 424 200.02 424S224.022 413.25 224.022 400S213.271 376 200.02 376ZM120.012 376C106.76 376 96.009 386.75 96.009 400S106.76 424 120.012 424S144.014 413.25 144.014 400S133.263 376 120.012 376ZM598.683 425.375C584.182 410.875 576.056 391.25 576.056 370.75V269.25C576.056 248.75 584.182 229.125 598.683 214.625L635.312 177.875C641.563 171.75 641.563 161.5 635.312 155.25L612.81 132.75C606.559 126.5 596.308 126.5 590.183 132.75L553.429 169.375C526.926 195.875 512.05 231.75 512.05 269.25V288H448.044V237.125C448.044 228.375 446.294 219.875 442.793 211.875L364.536 29.125C356.91 11.375 339.658 0 320.281 0H176.017C149.515 0 128.012 21.5 128.012 48V160H112.011C85.508 160 64.006 181.5 64.006 208V299.25C26.253 317.25 0 355.375 0 400C0 461.875 50.13 512 112.011 512H368.036C429.917 512 480.047 461.875 480.047 400C480.047 382.75 475.796 366.625 468.796 352H512.05V370.75C512.05 408.25 526.926 444.125 553.429 470.625L590.183 507.25C596.308 513.5 606.559 513.5 612.81 507.25L635.312 484.75C641.563 478.5 641.563 468.25 635.312 462.125L598.683 425.375ZM192.019 64H309.78L378.412 224H256.025L192.019 160V64ZM368.036 448H112.011C85.508 448 64.006 426.5 64.006 400S85.508 352 112.011 352H368.036C394.539 352 416.041 373.5 416.041 400S394.539 448 368.036 448ZM360.035 376C346.784 376 336.033 386.75 336.033 400S346.784 424 360.035 424C373.286 424 384.038 413.25 384.038 400S373.286 376 360.035 376ZM280.027 376C266.776 376 256.025 386.75 256.025 400S266.776 424 280.027 424S304.03 413.25 304.03 400S293.279 376 280.027 376Z"/></svg>

<svg xmlns="http://www.w3.org/2000/svg" viewBox="0 0 640 512"><!--! Font Awesome Pro 6.0.0-alpha3 by @fontawesome - https://fontawesome.com License - https://fontawesome.com/license (Commercial License) --><path d="M200 376c-13.25 0-24 10.75-24 23.1s10.75 23.97 24 23.97c13.25 0 23.97-10.75 23.97-24S213.3 376 200 376zM120 376c-13.25 0-24 10.75-24 24s10.75 23.97 24 23.97s23.97-10.75 23.97-24S133.3 376 120 376zM598.7 425.4c-14.5-14.5-22.61-34.12-22.61-54.62V269.2c0-20.5 8.113-40.12 22.61-54.62l36.67-36.73c6.251-6.125 6.244-16.35-.0064-22.6l-22.58-22.58c-6.251-6.25-16.46-6.235-22.58 .0148l-36.73 36.66c-26.5 26.5-41.39 62.39-41.39 99.89v18.73h-64.01V237.1c0-8.75-1.725-17.23-5.225-25.23l-78.28-182.8c-7.626-17.75-24.95-29.11-44.33-29.11L176 0c-26.5 0-48 21.5-48 48v112h-16c-26.5 0-48 21.5-48 48v91.23C26.25 317.2 0 355.4 0 400C0 461.9 50.12 512 112 512h256c61.88 0 112-50.13 112-112c0-17.25-4.213-33.38-11.21-48l43.25 .0179v18.73c0 37.5 14.89 73.39 41.39 99.89l36.73 36.66c6.126 6.25 16.33 6.254 22.58 .0039l22.58-22.58c6.251-6.25 6.257-16.47 .0064-22.59L598.7 425.4zM192 64h117.8l68.62 160H256L192 160V64zM368 448h-256c-26.5 0-48-21.5-48-48S85.5 352 112 352h256c26.5 0 48 21.5 48 48S394.5 448 368 448zM360 376c-13.25 0-24 10.75-24 24s10.75 23.97 24 23.97c13.25 0 23.97-10.75 23.97-24S373.3 376 360 376zM280 376c-13.25 0-24 10.75-24 24s10.75 23.97 24 23.97s23.97-10.75 23.97-23.1S293.3 376 280 376z"/></svg>
